public/assets/icons/social/vk.svg

<svg width="37" height="35" viewBox="0 0 37 35" fill="none" xmlns="http://www.w3.org/2000/svg">
<g opacity="0.8">
<circle cx="18.3379" cy="17.5" r="10.9375" fill="#020F59"/>
<path d="M24.9751 21.0272C24.9577 20.9872 24.9415 20.954 24.9264 20.9274C24.6771 20.4481 24.2006 19.8599 23.4973 19.1626L23.4824 19.1466L23.475 19.1388L23.4675 19.1307H23.46C23.1407 18.806 22.9386 18.5877 22.8539 18.4759C22.6991 18.2629 22.6644 18.0474 22.749 17.829C22.8088 17.664 23.0335 17.3155 23.4225 16.7831C23.627 16.5009 23.789 16.2748 23.9088 16.1044C24.7718 14.88 25.1459 14.0976 25.0311 13.7569L24.9866 13.6772C24.9566 13.6293 24.8793 13.5854 24.7547 13.5455C24.6299 13.5055 24.4703 13.4989 24.2757 13.5255L22.1209 13.5414C22.086 13.5282 22.0361 13.5295 21.9712 13.5455C21.9064 13.5614 21.8739 13.5695 21.8739 13.5695L21.8364 13.5895L21.8066 13.6135C21.7817 13.6294 21.7542 13.6573 21.7243 13.6973C21.6945 13.7371 21.6696 13.7838 21.6496 13.837C21.415 14.4811 21.1483 15.08 20.849 15.6336C20.6644 15.9637 20.4949 16.2497 20.3401 16.492C20.1855 16.7341 20.0558 16.9125 19.9511 17.0269C19.8462 17.1413 19.7517 17.233 19.6667 17.3023C19.5819 17.3716 19.5172 17.4009 19.4723 17.3902C19.4273 17.3795 19.385 17.3689 19.3449 17.3582C19.2752 17.3103 19.219 17.2451 19.1767 17.1626C19.1342 17.0801 19.1056 16.9762 19.0906 16.8511C19.0757 16.726 19.0669 16.6183 19.0644 16.5278C19.062 16.4373 19.0631 16.3094 19.0682 16.1444C19.0734 15.9793 19.0757 15.8676 19.0757 15.8091C19.0757 15.6068 19.0794 15.3872 19.0868 15.1503C19.0944 14.9134 19.1005 14.7257 19.1056 14.5875C19.1107 14.449 19.1131 14.3026 19.1131 14.1482C19.1131 13.9939 19.1042 13.8728 19.0868 13.7849C19.0697 13.6971 19.0433 13.612 19.0085 13.5294C18.9735 13.4469 18.9223 13.383 18.8551 13.3377C18.7878 13.2925 18.7041 13.2566 18.6045 13.2299C18.3401 13.166 18.0034 13.1315 17.5943 13.1261C16.6665 13.1155 16.0704 13.1794 15.806 13.3179C15.7013 13.3763 15.6065 13.4562 15.5217 13.5573C15.4319 13.6745 15.4194 13.7384 15.4842 13.7489C15.7836 13.7968 15.9955 13.9112 16.1202 14.0922L16.1651 14.1881C16.2001 14.2573 16.235 14.3798 16.2699 14.5554C16.3048 14.7311 16.3273 14.9254 16.3372 15.1382C16.3621 15.5269 16.3621 15.8596 16.3372 16.1363C16.3123 16.4132 16.2887 16.6287 16.2662 16.7831C16.2437 16.9375 16.21 17.0626 16.1651 17.1584C16.1202 17.2542 16.0903 17.3128 16.0753 17.334C16.0603 17.3553 16.0479 17.3687 16.038 17.3739C15.9731 17.4005 15.9057 17.414 15.8359 17.414C15.766 17.414 15.6813 17.3767 15.5815 17.3021C15.4818 17.2275 15.3783 17.1251 15.271 16.9947C15.1638 16.8642 15.0428 16.6819 14.9081 16.4477C14.7735 16.2135 14.6338 15.9367 14.4891 15.6173L14.3694 15.3857C14.2946 15.2367 14.1924 15.0197 14.0627 14.735C13.9329 14.4501 13.8182 14.1746 13.7185 13.9084C13.6786 13.7966 13.6188 13.7115 13.539 13.653L13.5015 13.6289C13.4766 13.6077 13.4367 13.5851 13.3818 13.5611C13.3269 13.537 13.2696 13.5198 13.2097 13.5092L11.1596 13.5251C10.9501 13.5251 10.808 13.5757 10.7331 13.6769L10.7032 13.7248C10.6882 13.7514 10.6807 13.794 10.6807 13.8526C10.6807 13.9111 10.6956 13.983 10.7256 14.0681C11.0249 14.8188 11.3503 15.5427 11.702 16.24C12.0536 16.9374 12.3592 17.4991 12.6185 17.9247C12.8779 18.3506 13.1422 18.7526 13.4116 19.1304C13.681 19.5084 13.8593 19.7506 13.9465 19.8571C14.0339 19.9637 14.1025 20.0434 14.1524 20.0966L14.3395 20.2882C14.4592 20.416 14.635 20.569 14.8669 20.7473C15.0989 20.9257 15.3558 21.1013 15.6376 21.2745C15.9195 21.4474 16.2474 21.5884 16.6216 21.6975C16.9957 21.8067 17.3598 21.8506 17.714 21.8294H18.5744C18.7489 21.8133 18.8811 21.7548 18.971 21.6537L19.0008 21.6137C19.0208 21.5819 19.0396 21.5326 19.0568 21.4661C19.0743 21.3996 19.083 21.3263 19.083 21.2466C19.0779 21.0177 19.0942 20.8114 19.1316 20.6278C19.1689 20.4442 19.2114 20.3058 19.2589 20.2126C19.3064 20.1195 19.36 20.0409 19.4197 19.9772C19.4795 19.9133 19.5221 19.8747 19.5471 19.8613C19.572 19.8479 19.5918 19.8389 19.6068 19.8334C19.7265 19.7908 19.8674 19.8321 20.0296 19.9573C20.1918 20.0824 20.3439 20.2368 20.4861 20.4204C20.6283 20.6041 20.7991 20.8103 20.9986 21.0392C21.1982 21.2681 21.3728 21.4383 21.5223 21.5502L21.6719 21.6461C21.7718 21.71 21.9015 21.7685 22.0612 21.8218C22.2206 21.875 22.3602 21.8883 22.48 21.8617L24.3954 21.8298C24.5849 21.8298 24.7323 21.7963 24.8368 21.7299C24.9416 21.6633 25.0039 21.59 25.0239 21.5104C25.044 21.4305 25.045 21.34 25.0277 21.2387C25.01 21.1377 24.9925 21.0671 24.9751 21.0272Z" fill="white"/>
</g>
</svg>

<svg xmlns="http://www.w3.org/2000/svg" width="37" height="35" fill="none"><g opacity=".8"><circle cx="18.338" cy="17.5" r="10.938" fill="#020F59"/><path fill="#fff" d="M24.975 21.027a1.071 1.071 0 0 0-.049-.1c-.249-.479-.725-1.067-1.429-1.764l-.015-.016-.007-.008-.008-.008h-.007a8.962 8.962 0 0 1-.606-.655c-.155-.213-.19-.429-.105-.647.06-.165.285-.514.674-1.046.204-.282.366-.508.486-.679.863-1.224 1.237-2.006 1.122-2.347l-.044-.08c-.03-.048-.108-.092-.232-.131a1.104 1.104 0 0 0-.48-.02l-2.154.015c-.035-.013-.085-.011-.15.005-.065.015-.097.024-.097.024l-.038.02-.03.024a.342.342 0 0 0-.082.083.561.561 0 0 0-.074.14 13.454 13.454 0 0 1-.801 1.797c-.185.33-.354.616-.509.858-.154.242-.284.42-.389.535-.105.114-.2.206-.284.275-.085.07-.15.099-.195.088a4.815 4.815 0 0 1-.127-.032.52.52 0 0 1-.168-.195.921.921 0 0 1-.086-.312 3.644 3.644 0 0 1-.023-.707c.005-.165.008-.276.008-.335 0-.202.003-.422.01-.659l.02-.563c.005-.138.007-.284.007-.439 0-.154-.009-.275-.026-.363a1.294 1.294 0 0 0-.078-.256.424.424 0 0 0-.154-.191.836.836 0 0 0-.25-.108 4.675 4.675 0 0 0-1.01-.104c-.928-.01-1.525.053-1.789.192a1.02 1.02 0 0 0-.284.24c-.09.117-.103.18-.038.19.3.049.511.163.636.344l.045.096c.035.07.07.192.105.367.035.176.057.37.067.583a6.63 6.63 0 0 1 0 .998 12.6 12.6 0 0 1-.07.647 1.36 1.36 0 0 1-.192.551.132.132 0 0 1-.037.04.528.528 0 0 1-.202.04c-.07 0-.155-.037-.255-.112a1.85 1.85 0 0 1-.31-.307 4.124 4.124 0 0 1-.363-.547 9.785 9.785 0 0 1-.419-.83l-.12-.232a20.56 20.56 0 0 1-.306-.651 12.97 12.97 0 0 1-.345-.827.524.524 0 0 0-.179-.255l-.037-.024a.752.752 0 0 0-.292-.12l-2.05.016c-.21 0-.352.05-.427.152l-.03.048a.273.273 0 0 0-.022.128c0 .058.015.13.045.215.299.75.624 1.475.976 2.172.352.697.657 1.26.916 1.685.26.426.524.828.794 1.205.269.378.447.62.534.727.088.107.156.186.206.24l.188.191c.12.128.295.281.527.46.232.178.489.353.77.526.282.173.61.314.985.424.374.109.738.153 1.092.131h.86c.175-.016.307-.074.397-.175l.03-.04a.547.547 0 0 0 .056-.148.862.862 0 0 0 .026-.22 2.798 2.798 0 0 1 .049-.618c.037-.184.08-.322.127-.415a1.02 1.02 0 0 1 .288-.352.48.48 0 0 1 .06-.028c.12-.042.26 0 .423.124.162.125.314.28.456.463.142.184.313.39.513.62.2.228.374.398.523.51l.15.096c.1.064.23.122.39.176.159.053.298.066.418.04l1.915-.032c.19 0 .337-.034.442-.1.105-.067.167-.14.187-.22.02-.08.021-.17.004-.271a1.053 1.053 0 0 0-.053-.212Z"/></g></svg>
